!!!OTL: Die dienende Schwester.
!!!OTL-incipit: Es wohnt' ein Kaiser an dem Rhein,
!!!ARE: Europa, Mitteleuropa, Deutschland (BRD), Rheinprovinz
!!!YOR: 4, S. 116
!!    ????
!!!SCT: Q0075r
!!!TXL: @@DE
!!!YEM: Copyright 1995, estate of Helmut Schaffrath.
**kern	**text
*ICvox	*
*M4/4	*
*met(c)	*
*k[b-]	*
*F:	*
!LO:TX:a:t=544 Rheinprov.	!
{4a	Es
=1	=1
4.a	wohnt'
8a	ein
4.a	Kai-
8cc	-ſer
=2	=2
4b-	an
4a	dem
4g}	Nhein,
{4g	er
=3	=3
4g	hat
4g	ʒwei
4g	ſchö-
4dd	-ne
=4	=4
4cc	Töchter-
4e	.
4f	-lein,
4r}	.
=5	=5
{4a	Töchter-
4b-	.
4cc	-lein,
4ff	er
=6	=6
4ff	hat
4ff	ʒwei
4ff	ſchö-
4a	-ne
=7	=7
4g	Töchter-
4g	.
4f}	-lein.
==	==
!!!AGN: Ballade, Adelige als Dienstmagd, Tod; Kinder - Spiel, Tanz
!! Einschiebsel am Anfang der dritten Zeile.
!!!ONB: ESAC (Essen Associative Code) Database: BALLADE
!!!AMT: simple quadruple
!!!AIN: vox
!!!EED: Helmut Schaffrath
!!!EEV: 1.0
!!!source: Deutsche Volkslieder mit ihren Melodien. Herausgegeben vom Deutschen Volksliedarchiv. Vierter Band. Berlin 1959.
!!!page: 116
!!!ENC: Anna Maria Matuszewska
!!!EEV: 2025/02/27
*-	*-
